!!!SOCIAL_FUNCTION:	songs connected with the cure of the sick
!!!PDT:	1909
!!!OTL: No_77_Healing_Song.krn
!!!REG: Great_Lakes
!!!LANG: Non-Tone
!!!LING_GROUP: Algonquin
**kern
*staff1
*clefG2
*k[b-e-a-d-g-c-]
*M3/4
8d-/L
8d-/
8d-/J
=1
4.g-/
8g-/
4d-/
=2
4.f/
8f/
8f/L
8f/J
=3
4.e-/
8e-/
4d-/
=4
4.e-/
8e-/
8e-/L
8e-/J
=5
4.c-/
8B-/
4B-/
=6
4.B-/
8c-/
8c-/L
8e-/J
=7
4.c-/
8B-/
4B-/
=8
4.B-/
8B-/
8B-/L
8B-/J
=9
4.B-/
8B-/
4B-/
=10
*M3/8
4.B-/
==
*-
